src/icons/person-add.svg

<svg xmlns="http://www.w3.org/2000/svg" width="512" height="512" viewBox="0 0 512 512">
    <path d="M400.2 260v-42.5h42.5v-35h-42.5V140h-35v42.5h-42.5v35h42.5V260z"/>
    <path d="M389.4 409.5s0-22-1.9-33.5c-1.5-9.1-14.1-21.1-67.5-40.7-52.6-19.4-49.5-9.9-49.5-45.5 0-23.1 11.8-9.7 19.2-53.5 2.9-17.3 5.2-5.7 11.5-33.4 3.4-14.5-2.2-15.6-1.6-22.5.7-6.9 1.3-13.1 2.6-27.3 1.5-17.5-14.7-63.6-73-63.6s-74.5 46.1-72.9 63.7c1.3 14.1 1.9 20.3 2.6 27.3.7 7-4.9 8-1.6 22.5 6.3 27.5 8.6 16.1 11.5 33.4 7.5 43.9 19.2 30.4 19.2 53.5 0 35.7 3.3 26.2-49.5 45.5C85 355 72.4 367 71 376.1c-1.9 11.4-1.9 33.4-1.9 33.4h320.3z"/>
</svg>

<?xml version="1.0" encoding="UTF-8"?>
<svg width="512px" height="512px" viewBox="0 0 512 512" version="1.1" xmlns="http://www.w3.org/2000/svg" xmlns:xlink="http://www.w3.org/1999/xlink">
    <!-- Generator: Sketch 62 (91390) - https://sketch.com -->
    <title>person-add</title>
    <desc>Created with Sketch.</desc>
    <g id="person-add" stroke="none" stroke-width="1" fill="none" fill-rule="evenodd">
        <polygon id="Path" fill="#000000" fill-rule="nonzero" points="400.2 260 400.2 217.5 442.7 217.5 442.7 182.5 400.2 182.5 400.2 140 365.2 140 365.2 182.5 322.7 182.5 322.7 217.5 365.2 217.5 365.2 260"></polygon>
        <path d="M389.4,409.5 C389.4,409.5 389.4,387.5 387.5,376 C386,366.9 373.4,354.9 320,335.3 C267.4,315.9 270.5,325.4 270.5,289.8 C270.5,266.7 282.3,280.1 289.7,236.3 C292.6,219 294.9,230.6 301.2,202.9 C304.6,188.4 299,187.3 299.6,180.4 C300.3,173.5 300.9,167.3 302.2,153.1 C303.7,135.6 287.5,89.5 229.2,89.5 C170.9,89.5 154.7,135.6 156.3,153.2 C157.6,167.3 158.2,173.5 158.9,180.5 C159.6,187.5 154,188.5 157.3,203 C163.6,230.5 165.9,219.1 168.8,236.4 C176.3,280.3 188,266.8 188,289.9 C188,325.6 191.3,316.1 138.5,335.4 C85,355 72.4,367 71,376.1 C69.1,387.5 69.1,409.5 69.1,409.5 L389.4,409.5 Z" id="Path" fill="#000000" fill-rule="nonzero"></path>
    </g>
</svg>
